X: 1
T: Calum's
Z: Daniel Quayle
S: https://thesession.org/tunes/15214#setting28286
R: reel
M: 4/4
L: 1/8
K: Dmaj
||:F2>F2 EDCE|DEED G2FG|AddA BAFA|E2ED EGFE|
F2>F2 EDCE|DE (3FED G2FG|AddA BAFA|EDEF D4:||
||:!accent!DFAc d2 !accent!DF|Acd2 !accent!DFAd|B2>d2 AFDF|E2>D2 EGFE|
!accent!DFAc d2 !accent!DF|Acd2 !accent!DFAd|B2>d2 AFDF|EDEF D4:||
